icons/actions/24/mail-mark-junk.svg

<svg viewBox="0 0 24 24" xmlns="http://www.w3.org/2000/svg">
    <defs>
        <style id="current-color-scheme" type="text/css">.ColorScheme-Text {
        color:#232629;
      }
      .ColorScheme-NegativeText {
        color:#da4453;
      }</style>
    </defs>
    <path class="ColorScheme-Text" d="m2 4v1 8 6 0.414062 0.585938h1 6 6v-1h-6-6v-0.585938l0.4628906-0.46289 6.2675782-6.267578 1.4531252 1.451172 0.814453 0.814453h0.001953l0.816406-0.814453 1.453125-1.451172 1.316407 1.316406h1.414062l-2.023438-2.023438 5.751954-5.7539058 0.222656-0.2226562h0.048828v0.2226562 7.7773438h1v-9h-0.048828-0.951172-0.462891-17.074218-0.4628906-1zm1 1h0.0488281l0.2226563 0.2226562 5.7519531 5.7539058-6.0234375 6.023438v-4-7.7773438-0.2226562zm1.4628906 0h15.074218l-7.537109 7.537109-7.5371094-7.537109z" fill="currentColor"/>
    <path class="ColorScheme-NegativeText" d="m22 17c0-1.661995-1.338005-3-3-3s-3 1.338005-3 3 1.338005 3 3 3 3-1.338005 3-3zm-1 0c0 0.371625-0.106065 0.714197-0.28125 1.011719l-2.730469-2.730469c0.297522-0.175185 0.640094-0.28125 1.011719-0.28125 1.107997 0 2 0.892003 2 2zm-0.988281 1.71875c-0.297522 0.175185-0.640094 0.28125-1.011719 0.28125-1.107997 0-2-0.892003-2-2 0-0.371625 0.106065-0.714197 0.28125-1.011719z" fill="currentColor"/>
</svg>

<svg xmlns="http://www.w3.org/2000/svg" viewBox="0 0 24 24">
  <defs id="defs3051">
    <style type="text/css" id="current-color-scheme">
      .ColorScheme-Text {
        color:#232629;
      }
      .ColorScheme-NegativeText {
        color:#da4453;
      }
      </style>
  </defs>
  <path 
     style="fill:currentColor;fill-opacity:1;stroke:none" 
     d="M 2 4 L 2 5 L 2 13 L 2 19 L 2 19.414062 L 2 20 L 3 20 L 9 20 L 15 20 L 15 19 L 9 19 L 3 19 L 3 18.414062 L 3.4628906 17.951172 L 9.7304688 11.683594 L 11.183594 13.134766 L 11.998047 13.949219 L 12 13.949219 L 12.816406 13.134766 L 14.269531 11.683594 L 15.585938 13 L 17 13 L 14.976562 10.976562 L 20.728516 5.2226562 L 20.951172 5 L 21 5 L 21 5.2226562 L 21 13 L 22 13 L 22 4 L 21.951172 4 L 21 4 L 20.537109 4 L 3.4628906 4 L 3 4 L 2 4 z M 3 5 L 3.0488281 5 L 3.2714844 5.2226562 L 9.0234375 10.976562 L 3 17 L 3 13 L 3 5.2226562 L 3 5 z M 4.4628906 5 L 19.537109 5 L 12 12.537109 L 4.4628906 5 z "
     class="ColorScheme-Text"/>
  <path
     style="fill:currentColor;fill-opacity:1;stroke:none" 
     d="M 19 14 C 17.338005 14 16 15.338005 16 17 C 16 18.661995 17.338005 20 19 20 C 20.661995 20 22 18.661995 22 17 C 22 15.338005 20.661995 14 19 14 z M 19 15 C 19.371625 15 19.714197 15.106065 20.011719 15.28125 L 17.28125 18.011719 C 17.106065 17.714197 17 17.371625 17 17 C 17 15.892003 17.892003 15 19 15 z M 20.71875 15.988281 C 20.893935 16.285803 21 16.628375 21 17 C 21 18.107997 20.107997 19 19 19 C 18.628375 19 18.285803 18.893935 17.988281 18.71875 L 20.71875 15.988281 z "
     class="ColorScheme-NegativeText"
     />
</svg>
